app/dist/common/images/financial-street-h.svg

<svg height="18" viewBox="0 0 18 18" width="18" xmlns="http://www.w3.org/2000/svg"><path d="m0 0h18v18h-18z" fill="#be8713"/><path d="m14 5h-4.5v2h4.5zm-8.79 0a1.2 1.2 0 0 0 -1.21 1.18v.82h4.5v-2zm-1.21 6h4.5v2h-4.5zm1.21-1.1a1.2 1.2 0 0 1 -1.21-1.16v-.82h4.5v2h-3.29zm8.79-.71a1.2 1.2 0 0 0 -1.21-1.19h-3.29v2h4.5v-.82zm-1.21 3.81a1.2 1.2 0 0 0 1.21-1.18v-.82h-4.5v2z" fill="#fff"/></svg>

<!-- by TradingView --><svg width="18" height="18" viewBox="0 0 18 18" xmlns="http://www.w3.org/2000/svg"><path fill="#BE8713" d="M0 0h18v18H0z"/><path d="M14 5H9.5v2H14V5ZM5.21 5A1.2 1.2 0 0 0 4 6.18V7h4.5V5H5.21ZM4 11h4.5v2H4v-2Zm1.21-1.1A1.2 1.2 0 0 1 4 8.74v-.82h4.5v2H5.21ZM14 9.19A1.2 1.2 0 0 0 12.79 8H9.5v2H14v-.82ZM12.79 13A1.2 1.2 0 0 0 14 11.82V11H9.5v2h3.29Z" fill="#fff"/></svg>
